X: 29025
T: Neckbelly
R: reel
M: 4/4
K: Edorian
~E3 B GEBE|B,EGA Bcde|dBAB ~F3 d|BdAF GEFD|
B,EGE BEGE|B,EGA Bcde|fdAF dBAF|1 BdAF GEED:|2 BdAF GE ~E2||
|:g2 ed e2 (g2|g)e ed egba|ge ~e2 eB ~B2|BA ~A2 AGFG|
EBed edBG|EBed egba|gefd edBA|1 BdAF GE ~E2:|2 BdAF GEFD||

